X:1265
T:Beach Glass Babes
R:jig
C:Jerry Holland, SOCAN
O:20th Century Cape Breton
S:Tune ofthe Month, July 2000
A:<http://www.jerryholland.com>
N:Contacts ...
N:..... Jerry Holland <jerry@cranfordpub.com>
N:Tune books, related recordings
N:..... Cranford Publications <http://www.cranfordpub.com>
H:Copyrights - www.fiddlesticksmusic.com (SOCAN)
Z:Paul Stewart Cranford <psc@cranfordpub.com>
L:1/8
Q:300
M:6/8
K:A
A|ABc cBA|caf edc|def fec|dBB BcB|!
ABc cBA|caf edc|def efd|ceA A2:|!
|:z|fdf faf|fec efa|fdf fed|[1cac Bce|!
fdf faf|fec efg|aec Bcd|ecA A2:|!
[2 cac BAF|ABc cBA|caf edc|def fed|ceA A2|]!


